plasma/desktoptheme/Materia-Mono/icons/kdeconnect.svg

<svg xmlns="http://www.w3.org/2000/svg" xmlns:osb="http://www.openswatchbook.org/uri/2009/osb" id="22-22-svg" width="22" height="22" version="1.1" viewBox="0 0 22 22">
 <defs id="22-22-defs4">
  <linearGradient id="22-22-linearGradient5606" osb:paint="solid">
   <stop id="22-22-stop5608" offset="0" style="stop-color:#000000"/>
  </linearGradient>
 </defs>
 <g id="22-22-kdeconnect">
  <rect style="opacity:0;fill:#111213" id="22-22-rect6" width="22" height="22" x="0" y="0" rx="0" ry="0"/>
  <path style="fill:#dfdfdf;filter:url(#filter7554)" id="22-22-path8" d="m 39,13 c -1,0 -1,1 -1,1 v 14 c 0,0 0,1 1,1 h 8 c 1,0 1,-1 1,-1 V 14 c 0,0 0,-1 -1,-1 z m 7,3 v 9 h -6 v -8.998047 z m -3.5,10 h 0.5 0.5 c 0.277,0 0.5,0.223 0.5,0.5 V 27 27.5 C 44,27.777 43.777,28 43.5,28 H 43 42.5 C 42.223,28 42,27.777 42,27.5 V 27 26.5 C 42,26.223 42.223,26 42.5,26 Z" transform="translate(-32,-10)"/>
 </g>
</svg>

<svg xmlns="http://www.w3.org/2000/svg" width="32" height="32" version="1.1" viewBox="0 0 32 32">
 <g id="22-22-kdeconnect" transform="translate(32,10)">
  <rect style="opacity:0" width="22" height="22" x="0" y="0" rx="0" ry="0"/>
  <path style="fill:#dfdfdf" d="M 39 13 C 38 13 38 14 38 14 L 38 28 C 38 28 38 29 39 29 L 47 29 C 48 29 48 28 48 28 L 48 14 C 48 14 48 13 47 13 L 39 13 z M 46 16 L 46 25 L 40 25 L 40 16.001953 L 46 16 z M 42.5 26 L 43 26 L 43.5 26 C 43.777 26 44 26.223 44 26.5 L 44 27 L 44 27.5 C 44 27.777 43.777 28 43.5 28 L 43 28 L 42.5 28 C 42.223 28 42 27.777 42 27.5 L 42 27 L 42 26.5 C 42 26.223 42.223 26 42.5 26 z" transform="translate(-32,-10)"/>
 </g>
 <g id="16-16-kdeconnect" transform="translate(54,-10)">
  <rect style="opacity:0" width="16" height="16" x="0" y="26" rx="0" ry="0"/>
  <path style="fill:#dfdfdf" d="M 58.798828 18 C 57.998828 18 58 18.75 58 18.75 L 58 29.25 C 58 29.25 57.9988 30 58.798828 30 L 65.199219 30 C 65.999219 30 66 29.25 66 29.25 L 66 18.75 C 66 18.75 65.999158 18 65.199219 18 L 58.798828 18 z M 60 20 L 62 20 L 64 20 L 64 26 L 60 26 L 60 20 z M 61.5 27 L 62 27 L 62.5 27 C 62.777 27 63 27.223 63 27.5 L 63 28 L 63 28.5 C 63 28.777 62.777 29 62.5 29 L 62 29 L 61.5 29 C 61.223 29 61 28.777 61 28.5 L 61 28 L 61 27.5 C 61 27.223 61.223 27 61.5 27 z" transform="translate(-54,10)"/>
 </g>
 <g id="kdeconnect">
  <rect style="opacity:0.001" width="32" height="32" x="0" y="0" rx="0" ry="0"/>
  <path d="M 17.016,6.975 14,7.5004 V 17.887 L 17,17.5 16.984,12.818 20.523,18 24,17.5 20,12.137 24.014,7.6371 20.494,6.9887 16.984,11.488 Z M 10.674,9.6274 C 10.645,9.6298 10.618,9.6425 10.596,9.6645 L 9.5605,10.711 C 9.5156,10.756 9.5081,10.827 9.543,10.881 L 10.793,12.801 C 10.557,13.219 10.379,13.678 10.264,14.158 L 8.1055,14.687 C 8.0456,14.702 8,14.756 8,14.818 V 15.5 16.182 C 8,16.244 8.0456,16.298 8.1055,16.312 L 10.264,16.842 C 10.379,17.322 10.557,17.781 10.793,18.199 L 9.543,20.119 C 9.5081,20.173 9.5156,20.244 9.5605,20.289 L 10.596,21.336 C 10.639,21.38 10.707,21.384 10.76,21.352 L 12.719,20.15 C 13.103,20.374 13.704,20.554 14.143,20.674 L 14.602,22.891 C 14.614,22.955 14.665,23 14.729,23 H 15.5 16.271 C 16.335,23 16.386,22.955 16.398,22.891 L 16.857,20.674 C 17.296,20.554 17.897,20.374 18.281,20.15 L 20.24,21.352 C 20.293,21.384 20.361,21.38 20.404,21.336 L 21.439,20.289 C 21.484,20.244 21.492,20.173 21.457,20.119 L 20.416,18.52 20.287,18.539 19.557,17.469 C 18.811,19.033 17.233,20.029 15.5,20.031 13.015,20.031 11,18.017 11,15.531 11.001,13.823 11.97,12.263 13.5,11.504 V 10.521 C 13.215,10.617 12.934,10.724 12.719,10.85 L 10.76,9.6488 C 10.733,9.6328 10.703,9.6249 10.674,9.6274 Z" style="fill:#dfdfdf"/>
  <path d="M 8.5,2 C 7.669,2 7,2.669 7,3.5 V 28.5 C 7,29.331 7.669,30 8.5,30 H 23.5 C 24.331,30 25,29.331 25,28.5 V 3.5 C 25,2.669 24.331,2 23.5,2 Z M 14.5,3 H 17.5 C 17.777,3 18,3.223 18,3.5 18,3.777 17.777,4 17.5,4 H 14.5 C 14.223,4 14,3.777 14,3.5 14,3.223 14.223,3 14.5,3 Z M 19.5,3 C 19.776,3 20,3.2239 20,3.5 20,3.7761 19.776,4 19.5,4 19.224,4 19,3.7761 19,3.5 19,3.2239 19.224,3 19.5,3 Z M 8,5 H 24 V 25 H 8 Z M 15,26 H 17 C 17.554,26 18,26.446 18,27 V 28 C 18,28.554 17.554,29 17,29 H 15 C 14.446,29 14,28.554 14,28 V 27 C 14,26.446 14.446,26 15,26 Z M 9.5,27 H 11.5 C 11.777,27 12,27.223 12,27.5 12,27.777 11.777,28 11.5,28 H 9.5 C 9.223,28 9,27.777 9,27.5 9,27.223 9.223,27 9.5,27 Z M 20.5,27 H 22.5 C 22.777,27 23,27.223 23,27.5 23,27.777 22.777,28 22.5,28 H 20.5 C 20.223,28 20,27.777 20,27.5 20,27.223 20.223,27 20.5,27 Z" style="fill:#dfdfdf"/>
 </g>
</svg>
